resources/haticons/SVG/work.svg

<!-- Generated by IcoMoon.io -->
<svg version="1.1" xmlns="http://www.w3.org/2000/svg" width="24" height="24" viewBox="0 0 24 24">
<title>work</title>
<path d="M14.016 6v-2.016h-4.031v2.016h4.031zM20.016 6q0.844 0 1.406 0.586t0.563 1.43v10.969q0 0.844-0.563 1.43t-1.406 0.586h-16.031q-0.844 0-1.406-0.586t-0.563-1.43v-10.969q0-0.844 0.563-1.43t1.406-0.586h4.031v-2.016q0-0.844 0.563-1.406t1.406-0.563h4.031q0.844 0 1.406 0.563t0.563 1.406v2.016h4.031z"></path>
</svg>

<svg xmlns="http://www.w3.org/2000/svg" width="24" height="24"><path d="M14.016 6V3.984H9.985V6h4.031zm6 0q.844 0 1.406.586t.563 1.43v10.969q0 .844-.563 1.43t-1.406.586H3.985q-.844 0-1.406-.586t-.563-1.43V8.016q0-.844.563-1.43T3.985 6h4.031V3.984q0-.844.563-1.406t1.406-.563h4.031q.844 0 1.406.563t.563 1.406V6h4.031z"/></svg>
